material/.icons/material/arrow-all.svg

<svg xmlns="http://www.w3.org/2000/svg" viewBox="0 0 24 24"><path d="M13 11h5l-1.5-1.5 1.42-1.42L21.84 12l-3.92 3.92-1.42-1.42L18 13h-5v5l1.5-1.5 1.42 1.42L12 21.84l-3.92-3.92L9.5 16.5 11 18v-5H6l1.5 1.5-1.42 1.42L2.16 12l3.92-3.92L7.5 9.5 6 11h5V6L9.5 7.5 8.08 6.08 12 2.16l3.92 3.92L14.5 7.5 13 6v5z"/></svg>

<?xml version="1.0" encoding="UTF-8"?><!DOCTYPE svg PUBLIC "-//W3C//DTD SVG 1.1//EN" "http://www.w3.org/Graphics/SVG/1.1/DTD/svg11.dtd"><svg xmlns="http://www.w3.org/2000/svg" xmlns:xlink="http://www.w3.org/1999/xlink" version="1.1" id="mdi-arrow-all" width="24" height="24" viewBox="0 0 24 24"><path d="M13,11H18L16.5,9.5L17.92,8.08L21.84,12L17.92,15.92L16.5,14.5L18,13H13V18L14.5,16.5L15.92,17.92L12,21.84L8.08,17.92L9.5,16.5L11,18V13H6L7.5,14.5L6.08,15.92L2.16,12L6.08,8.08L7.5,9.5L6,11H11V6L9.5,7.5L8.08,6.08L12,2.16L15.92,6.08L14.5,7.5L13,6V11Z" /></svg>
